src/assets/ns-carnatic.svg

<?xml version="1.0" encoding="UTF-8" standalone="no"?>
<!DOCTYPE svg PUBLIC "-//W3C//DTD SVG 1.1//EN" "http://www.w3.org/Graphics/SVG/1.1/DTD/svg11.dtd">
<svg width="100%" height="100%" viewBox="0 0 50 50" version="1.1" xmlns="http://www.w3.org/2000/svg" xmlns:xlink="http://www.w3.org/1999/xlink" xml:space="preserve" xmlns:serif="http://www.serif.com/" style="fill-rule:evenodd;clip-rule:evenodd;stroke-linejoin:round;stroke-miterlimit:2;">
    <path d="M18.78,1.34L22.2,16.03C20.573,15.47 18.72,15.19 16.64,15.19C14.547,15.19 12.64,15.53 10.92,16.21C8.933,16.937 7.94,17.897 7.94,19.09C7.94,20.29 8.933,21.253 10.92,21.98C12.64,22.607 14.547,22.92 16.64,22.92C18.827,22.92 20.847,22.58 22.7,21.9C24.553,21.22 25.48,20.283 25.48,19.09C25.48,18.81 25.427,18.503 25.32,18.17L21.62,3.98L33.32,5.43L29.32,39.21C27.613,38.817 25.76,38.62 23.76,38.62C21,38.62 18.48,39.017 16.2,39.81C13.64,40.777 12.36,42.02 12.36,43.54C12.36,45.187 13.64,46.463 16.2,47.37C18.387,48.163 20.907,48.56 23.76,48.56C26.613,48.56 29.203,48.123 31.53,47.25C33.863,46.377 35.077,45.143 35.17,43.55L37.75,2.21L18.78,1.37L18.78,1.34Z" style="fill:white;fill-rule:nonzero;"/>
</svg>

<?xml version="1.0" encoding="UTF-8"?>
<svg xmlns="http://www.w3.org/2000/svg" xmlns:xlink="http://www.w3.org/1999/xlink" width="50px" height="50px" viewBox="0 0 50 50" version="1.1">
<path d="M18.78 1.34l3.42 14.69q-2.44-0.84-5.56-0.84q-3.14 0-5.72 1.02q-2.98 1.09-2.98 2.88q0 1.8 2.98 2.89q2.58 0.94 5.72 0.94q3.28 0 6.06-1.02q2.78-1.02 2.78-2.81q0-0.42-0.16-0.92l-3.7-14.19l11.7 1.45l-4 33.78q-2.56-0.59-5.56-0.59q-4.14 0-7.56 1.19q-3.84 1.45-3.84 3.73q0 2.47 3.84 3.83q3.28 1.19 7.56 1.19q4.28 0 7.77-1.31q3.5-1.31 3.64-3.7l2.58-41.34l-18.97-0.84Z" fill="rgb(255,96,0)"/>
</svg>
